X: 2389
T: HARRY BLOODGOOD'S FAMOUS JIG
%R: hornpipe, reel
B: James Kerr "Merry Melodies" v.2 p.43 #389
Z: 2016 John Chambers <jc:trillian.mit.edu>
N: Removed dot from first d note in bar 7 to make it the correct length.
M: C
L: 1/8
K: Bb
uF2 |\
vBzvB2- B>vAuc>uB | vdzvB2- B>vAuc>uB |\
A>Bc>d e>dc>B | c>BA>G F>ED>E |\
vFzvB2- B>vAuc>uB | vdzvB2- B>vAuB>uc |\
d4- d>ec>d | B>cA>B G2 :|
|: F2 |\
(3(BcB) F>B d>FB>d | (3(cdc) G>c e>dc>B |\
(3(ABA) E>B (3(ABA) E>A | G>F=E>F D>FG>A |\
(3(BcB) F>B d>FB>d | (3(cdc) G>c e>dc>B |\
A>gf2 F>ed>c | B2[d2F2] [B2D2] :|
